X: 30279
T: Old Maid In The Garret, The
R: march
M: 
K: Gmajor
M:2/4
B>A|GD B,C|D2B,C|D>D DD|ED3|
A2A>B|A2GA|B>B GG|ED3|
B2cd|c2BA|G2AB|EDB,C|
D2D>E|D2B,C|D>E DC|B,DB,C|
D2E2|D4|B2cd|c2Bc|
dBG2|D2FG|A4|G2||

